X:1
T:kuyokuyosuruna
M:4/4
L:1/8
Q:1/4=90
K:Fmaj
FF FC _E_EC2|FF FF C4|FF FG Ac2B|AA GG F2 zA|
AA B4 zB|BB A4 zA|AA GG AA BB|GG AA Bc zc|
cc A4 zc|cc B4-B z|AA BB cB2G|AF GG F4|]
